X: 1
T:The Boys of the Lough
M:6/8
L:1/8
Q:80
C:Trad. Arr. by T. Tully
S:Jig
K:HP
|: e|
{g}ec{G}ce{g}e{A}e|
{g}fae{g}faf|
{g}ec{G}c{g}A{d}c{G}c|  !
{g}Bc{G}A{g}Bcd{g}ec{G}ce{g}e{A}e|
{g}fae{g}faf|
{g}ec{G}c{g}A{d}c{G}c|  !
{g}BcB{G}A2:| |:
e|
{ag}a2f{g}ec{G}c|
e{g}e{A}e{g}faf|  !
{g}ec{G}c{g}A{d}c{G}c|
{g}Bc{G}A|1 {g}B{d}ce{ag}a2f{g}ec{G}c|
e{g}e{A}e{g}faf|  !
{g}ec{G}c{g}A{d}c{G}c|
{g}BcB{G}A2:|
